X:5091
T:The Crabbit Childer
M:6/8
R:Jig
L:1/8
Q:180
C:Aidan Crossey
K:D
|:D2F FED|CDE CDE|D2F FED|CDE D3|
D2F FED|CDE CDE|c2c cBA|GEC D3:||
|:A2d dcd|ece ece|A2d dcd|efe dcd|
e2a age|dcd ecA|c2c cBA|GEC D3:||
